X:1
T:113 - O Dia Glorioso
T:Letra: Ira David Sankey (1840-1908)
T:Trad.: Henry Maxwell Wright (1849-1931)
T:Música: Ira David Sankey (1840-1908)
M:4/4
L:1/4
Q:1/4=100
K:Ab
V:1
E | "Ab"EcBA | "Db"GF F/A/ G/F/ | "Ab"EEA G/A/ | "Eb"B2 z A/B/ | "Ab"cdc "Ab7"G | "Db"BA F/A/ G/F/ | "Ab/Eb"EA "Eb7"AG | "Ab"A2 z || G/A/ | "Eb"BBBB | Be e/B/ G/B/ | "Bb7"BAFc | "Eb"c2- B G/A/ | BBBB | Be e/B/ G/B/ | "Bb7"BAGF | "Eb"E2z "Eb7"E | "Ab"EcBA | "Db"GF F/A/ G/F/ | "Ab"EEA G/A/ | "Eb"B2 z A/B/ | "Ab"cdc "Ab7"G | "Db"BA F/A/ G/F/ | "Ab/Eb"EA "Eb7"AG | "Ab"A2 z |]
w: 1.~Re-go-zi-jai-vos, sim, ó cren-tes, O Se-nhor não tar-da_rá! Já_ vem o di-a mui glo-rio-so Em que Cris-to vol-ta-rá!     Oh!_ di-a tri-un-fal de Cris-to,    Quan-do lá do céu des-cer!_    Es-te-ja-mos pron-tos, ju-bi-lo-sos,    O Se-nhor a re-ce-ber!                   Re-go-zi-jai-vos, sim, ó cren-tes!    O Se-nhor não tar-da_rá!    Já_ vem o di-a mui glo-rio-so    Em que Cris-to vol-ta-rá!  
w: 2.~Eis, com mi-lha-res de mi-lha-res, So-breas nu-vens E-le_ vem; E_ to-dos jun-tos en-tra-re-mos Com Je-sus na gló-riaa-lém!  
w: 3.~Een-tão se-rá glo-ri-fi-ca-do Nos re-mi-dos o Se_nhor; E o mun-do fi-ca-rá pas-ma-do, Ven-doa Cris-toem seu ful-gor!       
W: 
W:
W: 1. Regozijai-vos, sim, ó crentes,
W: O Senhor não tardará!
W: Já vem o dia mui glorioso
W: Em que Cristo voltará!
W: 
W:    (Estribilho)
W:    Ó dia triunfal de Cristo,
W:    Quando lá do céu descer!
W:    Estejamos prontos, jubilosos,
W:    O Senhor a receber!               
W:    Regozijai-vos, sim, ó crentes!
W:    O Senhor não tardará!
W:    Já vem o dia mui glorioso
W:    Em que Cristo voltará!
W: 
W:
W:
W: 2. Eis, com milhares de milhares,
W: Sobre as nuvens Ele vem;
W: E todos juntos entraremos
W: Com Jesus na glória além!
W: 
W: 3. E então será glorificado
W: Nos remidos o Senhor;
W: E o mundo ficará pasmado,
W: Vendo a Cristo em seu fulgor!
W: 
W:





